X: 3437
M: 2/4
L: 1/16
K: C
|:\
"^TRIO."\
b2G2b2a2 | a2g2g2e2 | g2G2f2B2 | d2c2c2g2 |\
b2G2b2a2 | a2g2g2e2 | g2f2B2g2 | c2ed "_D.C."c4 :|


